X:1
T:Volks-Kinderlieder mit hinzugefügter Clavierbegleitung
T:Sandmännchen
T:Sandmännchen
T:Volks-Kinderlieder , WoO 31, №. 4 mit hinzugefügter Clavierbegleitung Den Kindern Robert u. Clara Schumann’s gewidmet.
T:Melodie: anonym (Chanson) (T.)u.M.: Une petite feste, c. 1599 (T.)u.A.: (?)Friedrich Spee SJ (1591–1635), 1637/1638 Begleitung: Johannes Brahms (1833–1897), 1858
T:(T.)u.A.: Henricus Beginiker (1583–1665), c. 1622 T.u.M.: Anton Wilhelm Florentin von Zuccalmaglio „Wilhelm von Waldbrühl“ (1803–1869), 1840
T:gemeinfrei; MuseScore-Notensatz © (wo anwendbar) 2017 mirabilos Ⓕ The MirOS Licence
T:gemeinfrei; MuseScore-Notensatz © (wo anwendbar) 2017 mirabilos Ⓕ The MirOS Licence
T:gemeinfrei; MuseScore-Notensatz © (wo anwendbar) 2017 mirabilos Ⓕ The MirOS Licence
C:Johannes Brahms (1833–1897), 1858
Z:Anton Wilhelm Florentin von Zuccalmaglio „Wilhelm von Waldbrühl“ (1803–1869), 1840
Z:gemeinfrei; MuseScore-Notensatz © (wo anwendbar) 2017 mirabilos Ⓕ The MirOS Licence
%%score 1 { ( 2 5 ) | ( 3 4 ) }
L:1/8
Q:1/4=84
M:4/4
K:G
V:1 treble nm="Gesang."
V:2 treble nm="Clavier."
V:5 treble 
V:3 treble 
V:4 treble 
V:1
"^Andante." D2 ||S G3 A B2 A2 | G4 F2 G2 | (AB) c2 (BA) G2 | A4 z2 D2 | G3 A B2 A2 |{A} G4 F2 G2 | %7
w: 1.~Die|Blü- me- lein sie|schla- fen schon|längst _ im Mon- * den-|schein, sie|nik- ken mit den|Köp- fen auf|
w: |Vö- ge- lein sie|san- gen so|süß _ im Son- * nen-|schein, sie|sind zur Ruh ge-|gan- gen in|
w: |männ- chen ~kommt ge-|schli- chen und|guckt _ ~durch’s Fen- * ster-|lein, ob|ir- gend~ noch ein|Lieb- chen nicht|
w: |männ- chen aus dem|Zim- mer, es|schläft _ mein Herz- * chen|fein, es|ist gar fest ver-|schlos- sen schon|
 (AB) c2 (BA) G2 | A4 z2 |: (Bc) | d2 B2 c2 d2 | e3 d c2 (AB) | c2 c2 B2 d2 | A6 z2 | (d3 B) A4 | %15
w: ih- * ren Sten- * ge-|lein.|Es _|rüt- telt sich der|Blü- then- baum, er _|säu- selt wie im|Traum:|Schla- * fe,|
w: ih- * re Nest- * chen|klein.|Das _|Heim- chen in dem|Ach- ren- grund, es _|thut al- lein sich|kund:|Schla- * fe,|
w: mag _ zu Bet- * te|sein.|Und _|wo er nur ein|Kind- chen fand, streut _|er~~ihm in~~die Au- gen|Sand.|Schla- * fe,|
w: sein _ ~~Guck- äu- * ge-|lein.|Es _|leuch- tet Mor- gen|mir Will- ~komm das _|Äu- ge- lein so|fromm!|Schla- * fe,|
 (B3 A) (GA) (Bc) | d2 (GA) B2 A2 |1 G4 z2 :|2 G6 z2 || z8 | z8 | z8 | %22
w: schla- * fe, _ schlaf’ _|du, mein _ ~Kin- de-|lein!|\-~lein!||||
w: schla- * fe, _ schlaf’ _|du, mein _ ~Kin- de-|lein!|\-~lein!||||
w: schla- * fe, _ schlaf’ _|du, mein _ ~Kin- de-|lein!|\-~lein!||||
w: schla- * fe, _ schlaf’ _|du, mein _ ~Kin- de-|lein!|\-~lein!||||
 z4"_etwas bewegter""_{" z2 D2!D.S.! || z4 z2 |] %24
w: 2.~Die||
w: 3.~Sand~\-||
w: 4. Sand~\-||
w: ||
V:2
 dc || Bgcg dgcf | Be^ce AdBd | cdea gdBe | AdAa dadd' | Bgcg dgcf | Be^ca dd'db | %7
 [cf][dg]ea [dg][cf][Be]^c | dfda dd' |: B[Ac] | [Bd]g[GB]g [Ac]g[Bd]g | [ce]a[Bd]g [Ac]f[FA][GB] | %12
 [Ac]e[Ac]f [GB]g[Bd]b | [df]a [FA][GBd] [Ac]d[^A^c]d | ([Bd]g[GB]d FdFd) | %15
 ([Bd]g[Bd][Af] [Ge][Af][Bg][ca]) | db [GB][Ac] [GB]d[FA]d |1 GdBg dc :|2 GdBg dbge || fd'ec dbcA | %20
 Bg=fBxfec |xedG cGEc | F2 z D FAdc- || c2 B2 z2 |] %24
V:3
"_" D2- || G3 A B2 A2 | G4 F2 G2 | AB c2 BA G2 | F6 D2 | G3 A B2 A2 |{A} G4 F2 G2 | AB c2 BA G2 | %8
 A6 |: G2- | G2[K:bass] G,4 G,,2- | G,,2 G,4 D2- | D2 D,4 D,,2- | D,,2 D,4 D2- | ([G,D]2 B,2 D4) | %15
 G,2 B,2 [CE]2 [B,D][A,C] | B,2 G,2- G,2 C2 |1 B,4 z2 :|2[K:treble][K:bass] B,4 z2[K:treble] Bc || %19
 d2 GA B2 EF | G2 z2 x4 | x8 |[K:bass] D,F,A, z z2[K:treble]"_" D2- || [G,G]4 z2 |] %24
V:4
 D2 || D8 | D8 | D4 D4 | D6 D2- | D8 | D8 | D4 D4 | D6 |: x2 | x2[K:bass] x6 | x8 | x8 | x8 | x8 | %15
 x8 | G,2 (E,2 D,4) |1 G,4 x2 :|2[K:treble][K:bass] G,4 x2[K:treble] D2 || D4 D4 | (D4 C4 | %21
 B,4 A,4) |[K:bass] x6[K:treble] x2 || x2 x4 |] %24
V:5
 x2 || x8 | x8 | x8 | x8 | x8 | x8 | x8 | x6 |: x2 | x8 | x8 | x8 | x8 | x4 A4 | x8 | x8 |1 x6 :|2 %18
 x8 || x8 | x4 G4 | G4 x4 | x8 || x6 |] %24

